X: 46
T:Fishers's Hornpipe
% Nottingham Music Database
S:via PR
M:4/4
L:1/4
K:D
A|:"D"d/2A/2F/2A/2 "G"G/2B/2A/2G/2|"D"F/2D/2F/2D/2 "G"G/2B/2A/2G/2|\
"D"F/2D/2F/2D/2 "G"G/2B/2A/2G/2|"D"F/2E/2D/2F/2 "A"EA|
"D"d/2A/2F/2A/2 "G"G/2B/2A/2G/2|"D"F/2D/2F/2D/2 "G"G/2B/2A/2G/2|\
"D"F/2A/2d/2f/2 "A"g/2e/2c/2e/2|"D"df d::
c/2d/2|"A"e/2c/2A/2c/2 e/2f/2g/2e/2|"D"f/2e/2d/2f/2 e/2d/2c/2d/2|\
"A"e/2c/2A/2c/2 e/2f/2g/2e/2|"D"f/2e/2d/2B/2 Ad/2c/2|
"G"B/2G/2D/2G/2 B/2d/2c/2B/2|"D"A/2F/2D/2F/2 A/2F/2d/2A/2|\
"Em"B/2c/2d/2B/2 "A"c/2d/2e/2c/2|"D"df d:|


